!!!OTL: WEIT IN NEBELGRAUER FERNE
!!!ARE: Europa, Mitteleuropa, Deutschland
!!!SCT: B0454
!!!YEM: Copyright 1995, estate of Helmut Schaffrath.
**kern
*ICvox
*Ivox
*M4/4
*k[f#c#]
*D:
{4F#
4G
=1
4A
8B
8c#
8e
8d
8c#
8B
=2
8A
8G
4F#}
{4E
4D#
=3
4E
4F#
8G
8A
8B
8D
=4
4D
4C#}
{4A
4A
=5
8A
8f#
8e
8d
8d
8c#
8B
8A
=6
8A
8G
4F#}
{4E
4E
=7
8E
8F#
8G#
8A
8B
8cn
8F#
8G#
=8
4A
4r}
{4A
4A
=9
4d
8c#
8B-
8B-
8A
8A
8G
=10
4G
4F#}
{4G
4A
=11
8B
8c#
8d
8e
8f#
8g
8e
8c#
=12
2d}
==
!!!AGN: Liebes - Lied, Leid, Klage
!!!ONB: ESAC (Essen Associative Code) Database: BOEHME
!!!AMT: simple quadruple
!!!AIN: vox
!!!EED: Helmut Schaffrath
!!!EEV: 1.0
*-
